icons/midnadark/places/16/folder-add.svg

<?xml version="1.0" encoding="UTF-8" standalone="no"?>
<!-- Created with Inkscape (http://www.inkscape.org/) -->

<svg
   xmlns:dc="http://purl.org/dc/elements/1.1/"
   xmlns:cc="http://creativecommons.org/ns#"
   xmlns:rdf="http://www.w3.org/1999/02/22-rdf-syntax-ns#"
   xmlns:svg="http://www.w3.org/2000/svg"
   xmlns="http://www.w3.org/2000/svg"
   xmlns:sodipodi="http://sodipodi.sourceforge.net/DTD/sodipodi-0.dtd"
   xmlns:inkscape="http://www.inkscape.org/namespaces/inkscape"
   width="16"
   height="16"
   id="svg2"
   version="1.1"
   inkscape:version="0.91 r13725"
   viewBox="0 0 16 16"
   sodipodi:docname="folder-add.svg">
  <defs
     id="defs4" />
  <sodipodi:namedview
     id="base"
     pagecolor="#676767"
     bordercolor="#666666"
     borderopacity="1.0"
     inkscape:pageopacity="0"
     inkscape:pageshadow="2"
     inkscape:zoom="16.977634"
     inkscape:cx="-15.085724"
     inkscape:cy="8.6350931"
     inkscape:document-units="px"
     inkscape:current-layer="layer1-0"
     showgrid="false"
     inkscape:showpageshadow="false"
     borderlayer="true"
     units="px"
     inkscape:window-width="1366"
     inkscape:window-height="687"
     inkscape:window-x="0"
     inkscape:window-y="0"
     inkscape:window-maximized="1"
     inkscape:snap-global="true"
     inkscape:snap-bbox="true"
     showguides="false">
    <inkscape:grid
       type="xygrid"
       id="grid4062" />
    <sodipodi:guide
       position="2,2.0000174"
       orientation="0,12"
       id="guide4068" />
    <sodipodi:guide
       position="14,2.0000174"
       orientation="-12,0"
       id="guide4070" />
    <sodipodi:guide
       position="14,14.000017"
       orientation="0,-12"
       id="guide4072" />
  </sodipodi:namedview>
  <metadata
     id="metadata7">
    <rdf:RDF>
      <cc:Work
         rdf:about="">
        <dc:format>image/svg+xml</dc:format>
        <dc:type
           rdf:resource="http://purl.org/dc/dcmitype/StillImage" />
        <dc:title></dc:title>
      </cc:Work>
    </rdf:RDF>
  </metadata>
  <g
     inkscape:label="Capa 1"
     inkscape:groupmode="layer"
     id="layer1"
     transform="translate(0,-1036.3622)">
    <g
       transform="matrix(0.90537551,0,0,0.90537551,-365.91682,562.06022)"
       id="layer1-0"
       inkscape:label="Capa 1"
       style="fill:none;fill-opacity:1;stroke:#4f96d1;stroke-opacity:1">
      <g
         transform="matrix(0.04678128,0,0,0.04630826,417.81087,495.30995)"
         style="display:inline;fill:#60aae5;fill-opacity:1"
         id="g4163">
        <path
           transform="matrix(0.78720225,0,0,0.79524314,415.34217,430.10746)"
           sodipodi:nodetypes="scccssccccs"
           d="m -884.09987,294.78348 c -4.62566,0 -8.34918,3.71755 -8.34918,8.33531 l 0,119.41479 468.19182,1.00001 0,-79.20381 c 0,-4.61776 -3.7239,-8.3353 -8.34956,-8.3353 l -272.65225,0 c -8.5104,0.75134 -9.60667,-0.37701 -13.8121,-5.98088 -5.9637,-7.96762 -14.96889,-21.44253 -20.83998,-29.21462 -4.71246,-6.80467 -5.47678,-6.0155 -13.29224,-6.0155 z"
           inkscape:connector-curvature="0"
           id="rect8678-4-5-5-9"
           style="color:#000000;display:inline;overflow:visible;visibility:visible;fill:#ffffff;fill-opacity:1;fill-rule:nonzero;stroke:none;stroke-width:0.99992168;stroke-opacity:1;marker:none;enable-background:accumulate" />
        <path
           style="display:inline;opacity:1;fill:#ffffff;fill-opacity:1;stroke:none;stroke-width:0.07929727;stroke-linecap:butt;stroke-linejoin:miter;stroke-miterlimit:4;stroke-dasharray:none;stroke-opacity:1"
           d="M 0.58789062 4.0703125 C 0.41001636 4.0703125 0.26757812 4.2127507 0.26757812 4.390625 L 0.26757812 13.589844 C 0.26757812 13.767718 0.41001636 13.910156 0.58789062 13.910156 L 15.412109 13.910156 C 15.589984 13.910156 15.732422 13.767718 15.732422 13.589844 L 15.732422 4.390625 C 15.732422 4.2127507 15.589984 4.0703125 15.412109 4.0703125 L 0.58789062 4.0703125 z M 7.5 6.4003906 L 8.5 6.4003906 L 8.5 8.4003906 L 10.5 8.4003906 L 10.5 9.4003906 L 8.5 9.4003906 L 8.5 11.400391 L 7.5 11.400391 L 7.5 9.4003906 L 5.5 9.4003906 L 5.5 8.4003906 L 7.5 8.4003906 L 7.5 6.4003906 z "
           transform="matrix(23.610172,0,0,23.851341,-291.79598,616.80715)"
           id="rect4158-4-0" />
        <rect
           transform="matrix(0.78720228,0,0,0.79524319,415.34217,430.10746)"
           ry="9.629776"
           y="356.84882"
           x="-890.27631"
           height="295.12872"
           width="463.84711"
           id="rect4158-4-0-3"
           style="opacity:1;fill:none;fill-opacity:1;stroke:#ffffff;stroke-width:5.37616777;stroke-linecap:round;stroke-linejoin:round;stroke-miterlimit:4;stroke-dasharray:none;stroke-opacity:1" />
      </g>
      <g
         transform="matrix(1.1045141,0,0,1.1045141,404.14949,-620.34007)"
         id="layer1-00"
         inkscape:label="Capa 1">
        <g
           style="fill:#4d4d4d;fill-opacity:1;stroke:none;stroke-opacity:0.8"
           inkscape:label="Capa 1"
           id="layer1-0-5"
           transform="matrix(0.90537551,0,0,0.90537551,-365.91682,562.06022)">
          <g
             style="fill:#4d4d4d;fill-opacity:1;stroke:none;stroke-opacity:0.8"
             transform="matrix(0.05349368,0,0,0.05349368,440.48894,510.84577)"
             id="g4956-2">
            <g
               style="fill:#4d4d4d;fill-opacity:1;stroke:none;stroke-width:7.16012144;stroke-miterlimit:4;stroke-dasharray:none;stroke-opacity:0.8"
               transform="matrix(2.6108213,0,0,2.6108213,-768.22476,390.2786)"
               id="layer1-7-5-6-1" />
          </g>
        </g>
      </g>
    </g>
  </g>
</svg>

<svg xmlns="http://www.w3.org/2000/svg" viewBox="0 0 16 16"><g transform="matrix(.04235 0 0 .04193 12.359-25.862)" fill="#60aae5" stroke="#4f96d1"><g fill="#fff" stroke="none"><path transform="matrix(.7872 0 0 .79524 415.34 430.11)" d="m-884.1 294.78c-4.626 0-8.349 3.718-8.349 8.335v119.41l468.19 1v-79.2c0-4.618-3.724-8.335-8.35-8.335h-272.65c-8.51.751-9.607-.377-13.812-5.981-5.964-7.968-14.969-21.443-20.84-29.21-4.712-6.805-5.477-6.02-13.292-6.02z" color="#000"/><path d="m.588 4.07c-.178 0-.32.142-.32.32v9.199c0 .178.142.32.32.32h14.824c.178 0 .32-.142.32-.32v-9.199c0-.178-.142-.32-.32-.32h-14.824m6.912 2.33h1v2h2v1h-2v2h-1v-2h-2v-1h2v-2" transform="matrix(23.61017 0 0 23.85134-291.8 616.81)"/></g><rect transform="matrix(.7872 0 0 .79524 415.34 430.11)" y="356.85" x="-890.28" height="295.13" width="463.85" fill="none" stroke="#fff" stroke-linejoin="round" stroke-linecap="round" stroke-width="5.376" rx="9.63"/></g></svg>
